X:1947
T:h-moll-valsen
S: Ante Falk
R:Vals
Z:Johan Ronström 2011-01-12
O:Offerdal, Jämtland
M:3/4
L:1/8
K:Bm
|:F2 BB B2|Bc dc BA|G2 E2 ED|E4 cB|
A2 F2 F2|F2 EF dc|B2 AB dc|B4 F2:|
|:f^g fe dc|B2 FB d2|c2 AF Ac|BA Bc de|
f^g fe dc|B2 FB d2|c2 AF Ac|B4 FB:|
|:^d3d d2|^d3B df|f2e2e2|e3d cB|
c3c c2|c2 AF Ac|B2 AB dc|B4 FB:|

(:musicend:)

En vals efter Ante Falk från byn Stavre i Offerdal.
Har nog en gång i tiden levt som en Bb-dur vals från Norge

(:music:)
